!!!COM: Gomółka, Mikołaj
!!!CDT: ~1535-after 1591
!!!OTL: Paná sercem wesołym
!!!OTL@LAT: Exultate iusti
!!!AGn: Motet; Psalm
!!!SCn: Gom2033
!!!SCn: Gom2033
!!!voices: 4
!!!CNT: Polish
!!!OCY: Poland
!!!LYR: Jan Kochanowski (1530-1584/08/22)
!!!GTL: Melodiae na Psałterz Polski
!!!EFL: 33/150
!!!PPR: Łazarz Andrysowicz
!!!PPP: Kraków
!!!PDT: 1580
!!!YEC: 2015 Marcin Konik
!!!ENC: Marcin Konik
!!!END: 2015/05/19
!!!EED: Marcin Konik
!!!EEV: 2015/05/19
!!!ONB: Translated from MusicXM and edited on 2015/03/06 by Marcin Konik
!!!CharacterEncoding: utf-8
!!muse2ps: i2I150v85,85,85,150Q16
**kern	**kern	**kern	**kern
*staff4	*staff3	*staff2	*staff1
*Ivox	*Ivox	*Ivox	*Ivox
*I"Bassus	*I"Tenor	*I"Altus	*I"Cantus
*I'B	*I'T	*I'A	*I'C
*clefF3	*clefC3	*clefC2	*clefG2
*k[b-]	*k[b-]	*k[b-]	*k[b-]
*M2/1	*M2/1	*M2/1	*M2/1
*met(C|)	*met(C|)	*met(C|)	*met(C|)
=1-	=1-	=1-	=1-
2F	2c	2f	2a
2F	2c	2f	2a
4G	4B-	2.b-	2dd
4A	4c	.	.
4B-	2d	.	2dd
4G	.	4b-	.
=2	=2	=2	=2
4c	4e	4a	2.cc
4d	2f	8g	.
.	.	8f	.
2c	.	8gK	.
.	.	4a	.
.	4e	.	4cc
.	.	8gk	.
1F	1f	1a	1cc
=3	=3	=3	=3
2c	2e	2.g	4cc
.	.	.	4dd
2c	2e	.	4ee
.	.	4g	4cc
2B-	2d	2b-	4dd
.	.	.	4ee
2A	2c	4cc	4ff
.	.	4b-	4ee
=4	=4	=4	=4
2F	2c	2a	2dd
2G	2B	4g	2dd
.	.	4f	.
1C	1c	1e	1cc
=5	=5	=5	=5
2c	2g	2g	4ee
.	.	.	4ff
2c	2e	2cc	4gg
.	.	.	4ee
2A	2a	2cc	2ff
2F	2a	2cc	2ff
=6	=6	=6	=6
2c	1g	2.cc	1ee
2C	.	.	.
.	.	4cc	.
2D	2f	2a	2dd
2E	2e	2g	2cc
=7	=7	=7	=7
2F	2d	2a	2cc
2G	2d	4g	2b
.	.	4f	.
1C	1c	1e	1cc
==	==	==	==
*-	*-	*-	*-
